src/assets/outline/Paypal.svg

<svg width="24" height="24" viewBox="0 0 24 24"  xmlns="http://www.w3.org/2000/svg">
<path d="M7.13003 20.75H5.18002C4.66002 20.75 4.18002 20.53 3.84002 20.13C3.51002 19.74 3.36004 19.22 3.45004 18.72L5.84002 4.39001C6.14002 2.57001 7.70004 1.25 9.54004 1.25H14C17.17 1.25 19.75 3.83 19.75 7C19.75 7.21 19.74 7.40999 19.71 7.60999C19.58 9.16999 18.89 10.66 17.76 11.78C16.5 13.05 14.8 13.76 12.99 13.76H9.86001C9.74001 13.76 9.63001 13.85 9.61001 13.98L8.85003 19.26C8.75003 19.93 8.28002 20.48 7.65002 20.67C7.45002 20.74 7.26003 20.75 7.13003 20.75ZM9.54004 2.75C8.43004 2.75 7.50004 3.54 7.32004 4.63L4.93002 18.96C4.91002 19.06 4.96002 19.13 4.99002 19.16C5.02002 19.19 5.08002 19.25 5.18002 19.25H7.13003C7.30003 19.2 7.36003 19.12 7.38003 19.03L8.14004 13.76C8.26004 12.9 9.01002 12.26 9.87002 12.26H13C14.41 12.26 15.72 11.71 16.71 10.72C17.59 9.85 18.12 8.7 18.23 7.47C18.25 7.3 18.26 7.16001 18.26 7.01001C18.26 4.67001 16.35 2.76001 14.01 2.76001H9.54004V2.75Z" />
<path d="M11.1501 22.7491H8.2201C7.7001 22.7491 7.2101 22.519 6.8701 22.109C6.5301 21.699 6.4001 21.169 6.5001 20.649L6.76011 19.3391L7.21009 19.2191C7.29009 19.1991 7.36011 19.119 7.38011 19.019L8.14012 13.7491C8.26012 12.8891 9.0101 12.2491 9.8701 12.2491H13.0001C14.4101 12.2491 15.7201 11.699 16.7101 10.709C17.5901 9.83905 18.1201 8.68905 18.2301 7.45905L18.3301 6.28906L19.3501 6.86905C20.8401 7.71905 21.7601 9.29905 21.7601 10.9991C21.7601 12.5291 21.1601 13.9691 20.0801 15.0691C18.9801 16.1591 17.5401 16.7491 16.0101 16.7491H13.8601C13.7301 16.7491 13.6301 16.839 13.6101 16.959L12.8901 21.2791C12.7401 22.1291 12.0101 22.7491 11.1501 22.7491ZM8.07011 20.4691L7.9701 20.9491C7.9501 21.0491 8.0001 21.1291 8.0301 21.1591C8.0601 21.1991 8.1201 21.2491 8.2201 21.2491H11.1501C11.2801 21.2491 11.3801 21.1591 11.4001 21.0391L12.1201 16.7191C12.2601 15.8691 12.9901 15.2491 13.8501 15.2491H16.0001C17.1301 15.2491 18.2001 14.8091 19.0101 14.0091C19.8101 13.2091 20.2501 12.1291 20.2501 10.9991C20.2501 10.2191 19.9701 9.47905 19.4701 8.89905C19.1601 9.97905 18.5701 10.9791 17.7601 11.7791C16.5001 13.0491 14.8001 13.7591 12.9901 13.7591H9.86009C9.74009 13.7591 9.63009 13.8491 9.61009 13.9791L8.85011 19.2591C8.78011 19.7591 8.49011 20.1991 8.07011 20.4691Z" />
</svg>

<?xml version="1.0" encoding="UTF-8"?>
<svg width="24" height="24" viewBox="0 0 24 24" xmlns="http://www.w3.org/2000/svg">
 <path d="m7.13 20.75h-1.95c-0.52 0-1-0.22-1.34-0.62-0.33-0.39-0.47998-0.91-0.38998-1.41l2.39-14.33c0.3-1.82 1.86-3.14 3.7-3.14h4.46c3.17 0 5.75 2.58 5.75 5.75 0 0.21-0.01 0.40999-0.04 0.60999-0.13 1.56-0.82 3.05-1.95 4.17-1.26 1.27-2.96 1.98-4.77 1.98h-3.13c-0.12 0-0.23 0.09-0.25 0.22l-0.75998 5.28c-0.1 0.67-0.57001 1.22-1.2 1.41-0.2 0.07-0.38999 0.08-0.51999 0.08zm2.41-18c-1.11 0-2.04 0.79-2.22 1.88l-2.39 14.33c-0.02 0.1 0.03 0.17 0.06 0.2s0.09 0.09 0.19 0.09h1.95c0.17-0.05 0.23-0.13 0.25-0.22l0.76001-5.27c0.12-0.86 0.86998-1.5 1.73-1.5h3.13c1.41 0 2.72-0.55 3.71-1.54 0.88-0.87 1.41-2.02 1.52-3.25 0.02-0.17 0.03-0.30999 0.03-0.45999 0-2.34-1.91-4.25-4.25-4.25h-4.47v-0.01001z"/>
 <path d="m11.15 22.749h-2.93c-0.52 0-1.01-0.2301-1.35-0.6401s-0.47-0.94-0.37-1.46l0.26001-1.3099 0.44998-0.12c0.08-0.02 0.15002-0.1001 0.17002-0.2001l0.76001-5.2699c0.12-0.86 0.86998-1.5 1.73-1.5h3.13c1.41 0 2.72-0.5501 3.71-1.5401 0.88-0.86995 1.41-2.02 1.52-3.25l0.1-1.17 1.02 0.57999c1.49 0.85 2.41 2.43 2.41 4.13 0 1.53-0.6 2.97-1.68 4.07-1.1 1.09-2.54 1.68-4.07 1.68h-2.15c-0.13 0-0.23 0.0899-0.25 0.2099l-0.72 4.3201c-0.15 0.85-0.88 1.47-1.74 1.47zm-3.08-2.28-0.10001 0.48c-0.02 0.1 0.03 0.18 0.06 0.21 0.03 0.04 0.09 0.09 0.19 0.09h2.93c0.13 0 0.23-0.09 0.25-0.21l0.72-4.32c0.14-0.85 0.87-1.47 1.73-1.47h2.15c1.13 0 2.2-0.44 3.01-1.24 0.8-0.8 1.24-1.88 1.24-3.01 0-0.78-0.28-1.52-0.78-2.1-0.31 1.08-0.9 2.08-1.71 2.88-1.26 1.27-2.96 1.98-4.77 1.98h-3.13c-0.12 0-0.23 0.09-0.25 0.22l-0.75998 5.28c-0.07 0.5-0.36 0.94-0.78 1.21z"/>
</svg>
